assets/Images/Vector.svg

<svg width="16" height="16" viewBox="0 0 16 16" fill="none" xmlns="http://www.w3.org/2000/svg">
<path d="M16 8C16 10.1217 15.1571 12.1566 13.6569 13.6569C12.1566 15.1571 10.1217 16 8 16C5.87827 16 3.84344 15.1571 2.34315 13.6569C0.842855 12.1566 0 10.1217 0 8C0 5.87827 0.842855 3.84344 2.34315 2.34315C3.84344 0.842855 5.87827 0 8 0C10.1217 0 12.1566 0.842855 13.6569 2.34315C15.1571 3.84344 16 5.87827 16 8V8ZM8 4C7.87361 4.00007 7.74863 4.02662 7.63312 4.07793C7.51761 4.12924 7.41413 4.20418 7.32934 4.29791C7.24456 4.39165 7.18035 4.5021 7.14084 4.62217C7.10134 4.74223 7.08743 4.86923 7.1 4.995L7.45 8.502C7.46176 8.63977 7.5248 8.76811 7.62664 8.86164C7.72849 8.95516 7.86173 9.00705 8 9.00705C8.13827 9.00705 8.27151 8.95516 8.37336 8.86164C8.4752 8.76811 8.53824 8.63977 8.55 8.502L8.9 4.995C8.91257 4.86923 8.89866 4.74223 8.85915 4.62217C8.81965 4.5021 8.75544 4.39165 8.67066 4.29791C8.58587 4.20418 8.48239 4.12924 8.36688 4.07793C8.25137 4.02662 8.12639 4.00007 8 4V4ZM8.002 10C7.73678 10 7.48243 10.1054 7.29489 10.2929C7.10736 10.4804 7.002 10.7348 7.002 11C7.002 11.2652 7.10736 11.5196 7.29489 11.7071C7.48243 11.8946 7.73678 12 8.002 12C8.26722 12 8.52157 11.8946 8.70911 11.7071C8.89664 11.5196 9.002 11.2652 9.002 11C9.002 10.7348 8.89664 10.4804 8.70911 10.2929C8.52157 10.1054 8.26722 10 8.002 10Z" fill="#495057"/>
</svg>

<?xml version="1.0" encoding="utf-8"?>
<!-- Generator: Adobe Illustrator 27.0.1, SVG Export Plug-In . SVG Version: 6.00 Build 0)  -->
<svg version="1.1" id="Capa_1" xmlns="http://www.w3.org/2000/svg" xmlns:xlink="http://www.w3.org/1999/xlink" x="0px" y="0px"
	 viewBox="0 0 16 16" style="enable-background:new 0 0 16 16;" xml:space="preserve">
<style type="text/css">
	.st0{fill:#FFFFFF;}
</style>
<path class="st0" d="M16,8c0,2.1-0.8,4.2-2.3,5.7C12.2,15.2,10.1,16,8,16c-2.1,0-4.2-0.8-5.7-2.3C0.8,12.2,0,10.1,0,8
	c0-2.1,0.8-4.2,2.3-5.7C3.8,0.8,5.9,0,8,0c2.1,0,4.2,0.8,5.7,2.3C15.2,3.8,16,5.9,16,8L16,8z M8,4C7.9,4,7.7,4,7.6,4.1
	S7.4,4.2,7.3,4.3C7.2,4.4,7.2,4.5,7.1,4.6c0,0.1-0.1,0.2,0,0.4l0.3,3.5c0,0.1,0.1,0.3,0.2,0.4C7.7,9,7.9,9,8,9C8.1,9,8.3,9,8.4,8.9
	c0.1-0.1,0.2-0.2,0.2-0.4L8.9,5c0-0.1,0-0.3,0-0.4c0-0.1-0.1-0.2-0.2-0.3C8.6,4.2,8.5,4.1,8.4,4.1S8.1,4,8,4L8,4z M8,10
	c-0.3,0-0.5,0.1-0.7,0.3C7.1,10.5,7,10.7,7,11s0.1,0.5,0.3,0.7C7.5,11.9,7.7,12,8,12s0.5-0.1,0.7-0.3C8.9,11.5,9,11.3,9,11
	s-0.1-0.5-0.3-0.7C8.5,10.1,8.3,10,8,10z"/>
</svg>
